X:21027 
T:CHORUS JIG, The  
B:DMI.0342
Z:Nordberg/Black
R:jig
%Q:1/4=160
M:6/8
L:1/8
K:G
"D modal"
E|FAD DEF|AFD FED|FAD DFG|A2A BGE|
FAD DEF|AFD FED|E2E dAF|G3 GF:|
E|D2d dcd|F2A AFA|D2d dcd|1 A2A BGE|
D2d dcd|F2A AFA|BdB cAF|G3 GF:|
[2 ABA ABc|dcB cBA|BAG AGF|E2E dAF|\
G3 GF||
E|FED FAF|GBG FAG|FED FAF|1 A2A BGE|
FED FAF|GBG FAF|E2E dAF|G3 GF:|
[2 A3 ABc|dBd cAc|BdB AGF|E2E dAF|
G3-G3|]

%%%

